X:713
T:THE HIGHWAY TO DUBLIN
M:6/8
L:1/8
B:O'NEILL'S 713
N:"collected by Dunlap"
Z:Transcribed by A. LEE WORMAN
K:A
g|fed cBA|ecA A2 g|fed cBc|dBG G2 g|
fed cBA|def efg|agf efd|cAA A2:|
||g|faf ag2 f|ecA A2 g|faf ag2 e|dBG G2 g|
faf geg|fdf efg|agf efd|cAA A2:|
